X:164
T:Lawson's Hornpipe 
B:CRE2.309 (CornphÃÂÃÂÃÂÃÂ­opa Mhic Labhrais)
F:file ID: cre.2/164lawson
S:Jim Brophy 
L:1/8
M:C
R:hornpipe
Q:150
K:G
zf|g2dB GBdf|ecAF G3A|BAdB cdfg|afdc d3f|
g2dB GBdf|ecAF G3A|BAdB cAFA|G2GF G2:|
dc|BGDG BGAB|(3cBA eA cAed|BGDG BGAG|FADA FAD2|
BGDG BGAB|(3cBA eA cAeA|dgfe dcBA|(3GAG FA G2:|

%%%

